!!!COM: Lassus, Rudolphus
!!!CDT: 1563-1625
!!!OPR: Geistliche Psalmen mit dreyen Stimmen
!!!ONM: 4
!!!OTL@@LA: Cum invocarem
!!!OTL-incipit@@DE: Zu dir rüff ich in böser zeit
**kern	**text	**kern	**text	**kern	**text
*staff3	*staff3	*staff2	*staff2	*staff1	*staff1
*Ivox	*	*Ivox	*	*Ivox	*
*I"Bassus	*	*I"Tenor	*	*I"Cantus	*
*I'B	*	*I'T	*	*I'C	*
*clefC3	*	*clefC1	*	*clefG2	*
*k[b-]	*	*k[b-]	*	*k[b-]	*
*g:dor	*	*g:dor	*	*g:dor	*
*M2/1	*	*M2/1	*	*M2/1	*
*met(C|)	*	*met(C|)	*	*met(C|)	*
*MM180	*	*MM180	*	*MM180	*
=1	=1	=1	=1	=1	=1
*xywh-#130:334,56,2777,525	*	*xywh-#74:340,75,2782,520	*	*xywh-#14:321,70,2709,518	*
0r	.	0r	.	1g	Zu
.	.	.	.	2g	dier
.	.	.	.	2g	rüff
=2	=2	=2	=2	=2	=2
0r	.	0r	.	2b-	ich
.	.	.	.	2g	in
.	.	.	.	2b-	bö-
.	.	.	.	2cc	-ser
=3	=3	=3	=3	=3	=3
!	!	!LO:TX:a:i:t=c.f.	!	!	!
0r	.	1g	Zu	4dd	zeit/
.	.	.	.	4ee-i	.
.	.	.	.	4dd	.
.	.	.	.	4cc	.
.	.	2g	dir	2.b-	.
.	.	2g	rüff	.	.
.	.	.	.	4a	.
=4	=4	=4	=4	=4	=4
0r	.	2b-	ich	4g	.
.	.	.	.	4a	.
.	.	2g	in	4b-	.
.	.	.	.	4cc	.
.	.	2b-	bö-	2dd	.
*	*	*	*	*	*ij
.	.	2cc	-ser	2a	zu
=5	=5	=5	=5	=5	=5
*	*	*	*	*xywh-#14:315,585,2738,420	*
1G	Zu	1dd	zeit/	2b-	dir
*	*	*	*ij	*	*
.	.	.	.	2b-	rüff
2G	dir	1d	zu	2.b-	ich
2G	rüff	.	.	.	.
.	ich	.	.	8a	.
.	.	.	.	8g	.
=6	=6	=6	=6	=6	=6
2B-	ich	2d	dir	2f	.
2G	in	1dd	rüff	1b-	in
2B-	bö-	.	.	.	.
*	*	*	*	*lig	*
2c	-ser	1cc	ich	1a	bö-
=7	=7	=7	=7	=7	=7
!! cadence start
0d	zeit/	.	.	.	.
.	.	2b-	in	1g	.
*	*	*	*	*Xlig	*
.	.	2.a	bö-	.	.
.	.	.	.	2f#i	-ser
.	.	4a	-er	.	.
=8	=8	=8	=8	=8	=8
1r	.	1g	zeit/	2b-	zeit/
!! cadence end; ultima=g
*	*	*	*Xij	*	*Xij
.	.	.	.	2dd	O
*	*	*xywh-#74:335,579,2778,434	*	*	*
1g	O	1r	.	2dd	Gott
.	.	.	.	2dd	mei-
=9	=9	=9	=9	=9	=9
2g	Gott	1r	.	2b-	-ner
2g	mei-	.	.	2.dd	ge-
2d	-ner	2r	.	.	.
.	.	.	.	4cc	.
!! cadence start
2g	ge-	2dd	O	2.b-	.
=10	=10	=10	=10	=10	=10
2g	-rech-	2dd	Gott	.	.
.	.	.	.	4g	.
2f#	-tig-	2dd	mei-	2a	.
1g	-keit/	2b-	-ner	4dd	-rech-
!! cadence end; ultima=g
.	.	.	.	4cc	.
!! cadence start
.	.	2dd	ge-	4b-	.
.	.	.	.	4g	.
=11	=11	=11	=11	=11	=11
*xywh-#130:324,563,2771,430	*	*	*	*	*
1r	.	2cc	-rech-	2.a	.
.	.	2cc	-tig-	.	.
.	.	.	.	4a	-tig-
*	*	*	*	*xywh-#14:313,995,2729,416	*
2r	.	1b-	-keit/	2dd	keit/
!! cadence end; ultima=b-
2B-	du	.	.	2dd	du
=12	=12	=12	=12	=12	=12
2c	hast	1r	.	2ee	hast
2d	mich	.	.	2ff	mich
2c	auch	2r	.	2ee	auch
2B-	er-	2b-	Du	2dd	er-
=13	=13	=13	=13	=13	=13
2A	-hö-	2cc	hast	4ff	-hö-
.	.	.	.	4f	.
2G	-ret/	2dd	mich	4b-	.
.	.	.	.	4g	.
2r	.	2cc	auch	4a	.
.	.	.	.	4f	.
!! cadence start
2G	da	2b-	er-	1g	.
=14	=14	=14	=14	=14	=14
2c	mich	1a	-hö-	.	.
2d	das	.	.	2f	-ret/
1.e-	el-	1g	-ret/	2r	.
!! cadence end; ultima=g
.	.	.	.	2g	da
=15	=15	=15	=15	=15	=15
*	*	*xywh-#74:323,996,2774,421	*	*	*
.	.	1r	.	2cc	mich
2d	-lend	.	.	2dd	das
2c	tren-	2r	.	2ee-i	el-
2B-	-get	2d	Da	4dd	.
.	.	.	.	4cc	.
=16	=16	=16	=16	=16	=16
1r	.	2g	mich	2b-	.
.	.	2a	das	2cc	-lend
*	*	*	*	*xywh-#14:309,1401,2740,426	*
2r	.	2b-	el-	4dd	tren-
.	.	.	.	4ee	.
2F	das	2a	-end	4ff	.
.	.	.	.	4cc	.
=17	=17	=17	=17	=17	=17
!! cadence start
2c	el-	1g	dren-	2ee	.
2B-	-lend	.	.	2.dd	-get
*xywh-#130:313,959,2779,443	*	*	*	*	*
2A	tren-	1e	-get	.	.
.	.	.	.	8cc#i	.
.	.	.	.	8bi	.
2A	-get	.	.	2cc#i	.
=18	=18	=18	=18	=18	=18
2a	sehr/	2d	sehr/	2ff	sehr/
!! cadence end; ultima=d
1d	has-	2a	has-	1f	has-
.	.	2b-	-tu	.	.
2e	-tu	2cc	mich	2g	-tu
=19	=19	=19	=19	=19	=19
2f	mich	2dd	auß	2a	mich
2g	auß	2dd	den	4b-	auß
.	.	.	.	4b-	den
!! cadence start
2a	den	2cc	eng-	2f	eng-
1g	eng-	2b-	-sten	2g	-sten
=20	=20	=20	=20	=20	=20
.	.	1a	schwer/	2d	schwer/
2f#	-sten	.	.	2.dd	auff
*	*	*xywh-#74:321,1407,2759,438	*	*	*
1g	schwer/	2r	.	.	.
!! cadence end; ultima=g
.	.	.	.	4cc	.
.	.	2dd	auff	2b-	.
=21	=21	=21	=21	=21	=21
0r	.	2b-	wei-	2g	wei-
.	.	2dd	-ten	2b-	-ten
*	*	*	*	*xywh-#14:301,1786,2729,491	*
.	.	2cc	plan	2a	plan
!! cadence start
.	.	2b-	ge-	4g	.
.	.	.	.	2gg	ge-
=22	=22	=22	=22	=22	=22
0r	.	1a	-füh-	.	.
.	.	.	.	8ff#i	-füh-
.	.	.	.	8ee	.
.	.	.	.	2ff#i	.
.	.	2g	-ret	2gg	-ret/
!! cadence end; ultima=g
.	.	2b-	auff	2dd	auff
=23	=23	=23	=23	=23	=23
2r	.	2g	wei-	2b-	wei-
2d	auff	4f	-ten	4a	-ten
.	.	4a	auff	4ff	auff
2B-	wei-	2b-	wei-	2dd	wei-
2d	-ten	4a	-ten	2ff	-ten
.	.	2a	plan	.	.
=24	=24	=24	=24	=24	=24
!! cadence start
2c	plan	.	.	2ee	plan
.	.	4g	ge-	.	.
2B-	ge-	2.g	-füh-	2dd	ge-
1A	-fü-	.	.	1cc	-füh-
.	.	8f#i	.	.	.
.	.	8e	.	.	.
.	.	2f#i	.	.	.
=25	=25	=25	=25	=25	=25
0Gll	-ret.	0gll	ret.	0bll	ret.
!! cadence end; ultima=g
==	==	==	==	==	==
*-	*-	*-	*-	*-	*-
!!!RDF**kern: l = terminal long
!!!RDF**kern: i = editorial accidental
!!!AGN: Psalm; Tricinium
!!!LIB: Ulenberg, Caspar
!!!LIB-CDT: 1548/12/24-1617/02/16
!!!YOR: https://mdz-nbn-resolving.de/details:bsb00075346
!!!YOO: München, Bayerische Staatsbibliothek
!!!URL-scan: https://www.digitale-sammlungen.de/de/view/bsb00075346?page=14 Cantus
!!!URL-scan: https://www.digitale-sammlungen.de/de/view/bsb00075346?page=74 Tenor
!!!URL-scan: https://www.digitale-sammlungen.de/de/view/bsb00075346?page=130 Bassus
!!!IIIF: https://api.digitale-sammlungen.de/iiif/presentation/v2/bsb00075346/manifest
!!!EED: Wolfgang Drescher
!!!END: 2022/11/22
!!!ENC: Wolfgang Drescher
!!!EEV: 2023/02/16
!!!title: @{ONM}. @{OTL} / <i>@{OTL-incipit@@DE}</i>